X:1
L:1/8
M:6/8
K:D
 g | fdd ede | fef d>BA | Bge e2 d | Bge e>de | fdd e>de | fef dBA | Bed d2 B | ABd d2 :: g | 
 fga efg | fef d>BA | Bge e2 d | Bge e2 g | fga efg | fef d>BA | Bed d2 B | ABd d2 g | fga efg | 
 fef d>BA | Bge e2 d | Bge e>de | fdd e>de | fef d>BA | Bed d2 B | ABd d2 :|
